communes/3572.svg

<?xml version="1.0" encoding="UTF-8"?>
<!DOCTYPE svg  PUBLIC '-//W3C//DTD SVG 1.1//EN'  'http://www.w3.org/Graphics/SVG/1.1/DTD/svg11.dtd'>
<svg width="438" height="480" viewBox="21 15 438 480" xmlns="http://www.w3.org/2000/svg">
<metadata>
<rdf:RDF xmlns:dc="http://purl.org/dc/elements/1.1/" xmlns:rdf="http://www.w3.org/1999/02/22-rdf-syntax-ns#">
<rdf:Description dc:date="2006-12-10" dc:format="image/svg+xml" dc:language="de" dc:title="Wappen Falera (CH-GR)">
<dc:creator rdf:resource="http://de.wikipedia.org/wiki/Benutzer:Bernina"/>
</rdf:Description>
</rdf:RDF>
</metadata>
<title>Wappen Falera (CH-GR)</title>
<defs>
<clipPath id="a">
<path d="m360 4140a3240 3240 0 0 0 6480 0v-3870h-6480v3870z"/>
</clipPath>
<style type="text/css"><![CDATA[
  .Rand1 { stroke: #202020; stroke-width:15; }
  .Rand2 { stroke: #202020; stroke-width:30; }
  .Rand6 { stroke: #202020; stroke-width:90; }
  .Schwarz6 { stroke: #000000; stroke-width:90; }
  .Schwarz { fill: #000000; }
  .Rot { fill: #ff0000; }
  .Silber { fill: #ffffff; }
  .Grau { fill: #e0e0e0; }
  ]]></style>
</defs>
<g transform="scale(.066667)" fill="none" fill-rule="evenodd" stroke-miterlimit="10" stroke-width="10">
<g clip-path="url(#a)">
<path class="Rot" d="m-225-225v7650h7650v-7650h-7650z"/>
<path class="Silber Rand2" d="m450 5130c120-60 240-120 368-165 127-45 262-75 390-90 127-15 247-15 367-15v720l-315-90"/>
<path class="Rand2" d="m720 5265c135-60 270-120 390-157 120-38 225-53 300-60 75-8 120-8 165-8"/>
<path class="Silber Rand2" d="m675 5310h180v-585l-180 135"/>
<path class="Silber Rand2" d="m540 5310h180v-585l-180 135v450z"/>
<path class="Schwarz Rand1" d="m4635 1260a90 90 0 0 0-180 0 90 90 0 0 0 180 0z"/>
<path class="Schwarz6" d="m4545 1440v-630"/>
<path class="Schwarz6" d="m4410 945h270"/>
<path class="Silber Rand2" d="m4455 2250-540 90v2880h1260v-2880l-720-90z"/>
<path class="Silber Rand2" d="m1980 3960v1485h540v-1530l-540 45z"/>
<path class="Rand2" d="m4455 2250v2970"/>
<path class="Silber Rand2" d="m2205 4230v1215l2070-135v-2475l-270 135-495 1080-1215 135-90 45z"/>
<path class="Rand2" d="m3510 4050v1305"/>
<path class="Silber Rand2" d="m1530 4815v630h720v-900l-315 270h-405z"/>
<path class="Silber Rand2" d="m3330 4590v810l1485-225v-540h90l-495-765-90 45-405 630-585 45z"/>
<path class="Rand2" d="m1935 4815v630"/>
<path class="Rand2" d="m3870 4545v720"/>
<path class="Rand2" d="m4815 4635-453-696-42-69"/>
<path class="Grau Rand2" d="m4455 2250 765 96-675-951-675 953 585-98z"/>
<path class="Grau Rand2" d="m1890 4050 495-90 450-765-45-135-405 90-495 900z"/>
<path class="Grau Rand2" d="m2160 4275 1305-135 225-315 405-810 180-180-360 45-135 135-990 90-630 1170z"/>
<path class="Grau Rand2" d="m3240 4635 675-45 495-720-630 45-540 720z"/>
<path class="Grau Rand2" d="m1440 4860 495-45 315-270-405 45-405 270z"/>
<path class="Silber Rand2" d="m450 5355v-225c315 75 630 150 998 188 367 37 787 37 1290 0 502-38 1087-113 1627-210 540-98 1035-218 1530-338v-135l225-180 225 135v135c75 15 150 30 247 67 98 38 218 98 323 173s195 165 285 255v270c-105-45-210-90-338-135-127-45-277-90-420-113-142-22-277-22-442-7s-360 45-660 120-705 195-1140 300-900 195-1342 217c-443 23-863-22-1178-82s-525-135-712-210c-188-75-353-150-518-225z"/>
<path class="Rand2" d="m6030 5220v-495a97.79 97.79 0 0 1 180-45v540"/>
<path class="Rand2" d="m4777 2485a37.85 37.85 0 0 1 75 10 37.83 37.83 0 0 1 75 10v189l-225-28v-191a37.84 37.84 0 0 1 75 10z"/>
<path class="Rand2" d="m4197 2497a29.63 29.63 0 1 0-57 10 29.68 29.68 0 1 0-57 10v189l171-28v-191a29.68 29.68 0 1 0-57 10z"/>
<path class="Rand2" d="m4890 2975v160l-150-19v-161a37.84 37.84 0 0 1 75 10 37.85 37.85 0 0 1 75 10z"/>
<path class="Rand2" d="m4793 4230h45v-180h-45v180z"/>
<path class="Rand2" d="m4777 2485v191"/>
<path class="Rand2" d="m4852 2495v190"/>
<path class="Rand2" d="m4815 2965v161"/>
<path class="Rand2" d="m4197 2497v191"/>
<path class="Rand2" d="m4140 2507v190"/>
</g>
<path class="Rand6" d="m360 4140a3240 3240 0 0 0 6480 0v-3870h-6480v3870z"/>
</g>
</svg>

<?xml version="1.0" encoding="iso-8859-1"?>
<!DOCTYPE svg PUBLIC "-//W3C//DTD SVG 1.1//EN" "http://www.w3.org/Graphics/SVG/1.1/DTD/svg11.dtd">
<!-- Auto-generated by fig2svg tool
     Date: Sun Dec 10 19:06:52 2006 -->
<svg xmlns="http://www.w3.org/2000/svg"
     width="438" height="480" viewBox="21 15 438 480">
<metadata>
<rdf:RDF xmlns:rdf="http://www.w3.org/1999/02/22-rdf-syntax-ns#"
         xmlns:dc="http://purl.org/dc/elements/1.1/">
<rdf:Description
 dc:title="Wappen Falera (CH-GR)"
 dc:date="2006-12-10"
 dc:format="image/svg+xml"
 dc:language="de">
<dc:creator rdf:resource="http://de.wikipedia.org/wiki/Benutzer:Bernina" />
</rdf:Description>
</rdf:RDF>
</metadata>
<title>
Wappen Falera (CH-GR)
</title>
<defs>
<clipPath id="clippath">
<path d="M360,4140 A3240,3240 0.0 0 0 6840,4140 L6840,270 L360,270 L360,4140 Z" />
</clipPath>
<style type="text/css">
  <![CDATA[
  .Rand1 { stroke: #202020; stroke-width:15; }
  .Rand2 { stroke: #202020; stroke-width:30; }
  .Rand6 { stroke: #202020; stroke-width:90; }
  .Schwarz6 { stroke: #000000; stroke-width:90; }
  .Schwarz { fill: #000000; }
  .Rot { fill: #ff0000; }
  .Silber { fill: #ffffff; }
  .Grau { fill: #e0e0e0; }
  ]]>
</style>
</defs>
<g stroke="none" stroke-miterlimit="10" stroke-width="10"
   stroke-linecap="butt" stroke-linejoin="miter"
   fill="none" fill-rule="evenodd" transform="scale(0.066667)">
<g clip-path="url(#clippath)">
<path id="feld-1" class="Rot"
      d="M-225,-225 L-225,7425 L7425,7425 L7425,-225 L-225,-225 Z" />
<path id="mauerh-1" class="Silber Rand2"
      d="M450,5130 C570,5070 690,5010 818,4965 C945,4920 1080,4890 1208,4875
         C1335,4860 1455,4860 1575,4860 L1575,5580 L1260,5490" />
<path id="mlinie-1" class="Rand2"
      d="M720,5265 C855,5205 990,5145 1110,5108 C1230,5070 1335,5055 1410,5048
         C1485,5040 1530,5040 1575,5040" />
<path id="mauera-1" class="Silber Rand2"
      d="M675,5310 L855,5310 L855,4725 L675,4860" />
<path id="mauerb-1" class="Silber Rand2"
      d="M540,5310 L720,5310 L720,4725 L540,4860 L540,5310 Z" />
<path id="kugel-1" class="Schwarz Rand1"
      d="M4635,1260 A90,90 0.0 0 0 4455,1260 A90,90 0.0 0 0 4635,1260 Z" />
<path id="kreuz-1" class="Schwarz6" d="M4545,1440 L4545,810" />
<path id="kreuz-2" class="Schwarz6" d="M4410,945 L4680,945" />
<path id="kirche1-1" class="Silber Rand2"
      d="M4455,2250 L3915,2340 L3915,5220 L5175,5220 L5175,2340 L4455,2250 Z" />
<path id="kirche1-2" class="Silber Rand2"
      d="M1980,3960 L1980,5445 L2520,5445 L2520,3915 L1980,3960 Z" />
<path id="linie1-1" class="Rand2" d="M4455,2250 L4455,5220" />
<path id="kirche2-1" class="Silber Rand2"
      d="M2205,4230 L2205,5445 L4275,5310 L4275,2835 L4005,2970 L3510,4050
         L2295,4185 L2205,4230 Z" />
<path id="linie2-1" class="Rand2" d="M3510,4050 L3510,5355" />
<path id="kirche3-1" class="Silber Rand2"
      d="M1530,4815 L1530,5445 L2250,5445 L2250,4545 L1935,4815 L1530,4815 Z" />
<path id="kirche3-2" class="Silber Rand2"
      d="M3330,4590 L3330,5400 L4815,5175 L4815,4635 L4905,4635 L4410,3870
         L4320,3915 L3915,4545 L3330,4590 Z" />
<path id="linie3-1" class="Rand2" d="M1935,4815 L1935,5445" />
<path id="linie3-2" class="Rand2" d="M3870,4545 L3870,5265" />
<path id="linie3a-1" class="Rand2" d="M4815,4635 L4362,3939 L4320,3870" />
<path id="dach1-1" class="Grau Rand2"
      d="M4455,2250 L5220,2346 L4545,1395 L3870,2348 L4455,2250 Z" />
<path id="dach1-2" class="Grau Rand2"
      d="M1890,4050 L2385,3960 L2835,3195 L2790,3060 L2385,3150 L1890,4050 Z" />
<path id="dach2-1" class="Grau Rand2"
      d="M2160,4275 L3465,4140 L3690,3825 L4095,3015 L4275,2835 L3915,2880
         L3780,3015 L2790,3105 L2160,4275 Z" />
<path id="dach3-1" class="Grau Rand2"
      d="M3240,4635 L3915,4590 L4410,3870 L3780,3915 L3240,4635 Z" />
<path id="dach3-2" class="Grau Rand2"
      d="M1440,4860 L1935,4815 L2250,4545 L1845,4590 L1440,4860 Z" />
<path id="mauer-1" class="Silber Rand2"
      d="M450,5355 L450,5130 C765,5205 1080,5280 1448,5318
         C1815,5355 2235,5355 2738,5318 C3240,5280 3825,5205 4365,5108
         C4905,5010 5400,4890 5895,4770 L5895,4635 L6120,4455 L6345,4590
         L6345,4725 C6420,4740 6495,4755 6592,4792
         C6690,4830 6810,4890 6915,4965 C7020,5040 7110,5130 7200,5220
         L7200,5490 C7095,5445 6990,5400 6862,5355
         C6735,5310 6585,5265 6442,5242 C6300,5220 6165,5220 6000,5235
         C5835,5250 5640,5280 5340,5355 C5040,5430 4635,5550 4200,5655
         C3765,5760 3300,5850 2858,5872 C2415,5895 1995,5850 1680,5790
         C1365,5730 1155,5655 968,5580 C780,5505 615,5430 450,5355 Z" />
<path id="tor-1" class="Rand2"
      d="M6030,5220 L6030,4725 A97.79,97.79 0.0 0 1 6210,4680 L6210,5220" />
<path id="fenster1-1" class="Rand2"
      d="M4777,2485 A37.85,37.85 0.0 0 1 4852,2495
         A37.83,37.83 0.0 0 1 4927,2505 L4927,2694 L4702,2666 L4702,2475
         A37.84,37.84 0.0 0 1 4777,2485 Z" />
<path id="fenster1-2" class="Rand2"
      d="M4197,2497 A29.63,29.63 0.0 1 0 4140,2507
         A29.68,29.68 0.0 1 0 4083,2517 L4083,2706 L4254,2678 L4254,2487
         A29.68,29.68 0.0 1 0 4197,2497 Z" />
<path id="fenster2-1" class="Rand2"
      d="M4890,2975 L4890,3135 L4740,3116 L4740,2955
         A37.84,37.84 0.0 0 1 4815,2965 A37.85,37.85 0.0 0 1 4890,2975 Z" />
<path id="fenster3-1" class="Rand2"
      d="M4793,4230 L4838,4230 L4838,4050 L4793,4050 L4793,4230 Z" />
<path id="flinie-1" class="Rand2" d="M4777,2485 L4777,2676" />
<path id="flinie-2" class="Rand2" d="M4852,2495 L4852,2685" />
<path id="flinie-3" class="Rand2" d="M4815,2965 L4815,3126" />
<path id="flinie-4" class="Rand2" d="M4197,2497 L4197,2688" />
<path id="flinie-5" class="Rand2" d="M4140,2507 L4140,2697" />
</g>
<path id="clip-boundary" class="Rand6"
      d="M360,4140 A3240,3240 0.0 0 0 6840,4140 L6840,270 L360,270 L360,4140 Z" />
</g>
</svg>
